src/assets/img/contact.svg

<?xml version="1.0" encoding="UTF-8"?>
<!DOCTYPE svg PUBLIC "-//W3C//DTD SVG 1.1//EN" "http://www.w3.org/Graphics/SVG/1.1/DTD/svg11.dtd">
<!-- Creator: CorelDRAW 2019 (64-Bit) -->
<svg xmlns="http://www.w3.org/2000/svg" xml:space="preserve" width="7.317mm" height="4.5776mm" version="1.1" style="shape-rendering:geometricPrecision; text-rendering:geometricPrecision; image-rendering:optimizeQuality; fill-rule:evenodd; clip-rule:evenodd"
viewBox="0 0 143.58 89.82"
 xmlns:xlink="http://www.w3.org/1999/xlink">
 <defs>
  <style type="text/css">
   <![CDATA[
    .fil0 {fill:black;fill-rule:nonzero}
   ]]>
  </style>
 </defs>
 <g id="Layer_x0020_1">
  <metadata id="CorelCorpID_0Corel-Layer"/>
  <path class="fil0" d="M142.4 89.57l-29.39 0c-1.31,0.16 -2.64,0.24 -3.99,0.25l-0.21 0c-1.06,-0.01 -2.09,-0.1 -3.11,-0.25l-103.8 0c-0.2,0.16 -0.45,0.25 -0.73,0.25 -0.65,0 -1.18,-0.53 -1.18,-1.18 0,-2.14 0.08,-4.27 0.23,-6.37l0 -81.03c0,-0.65 0.53,-1.18 1.18,-1.18l84.07 0c0.98,-0.03 1.97,-0.05 2.96,-0.06l0.21 -0c0.79,0 1.57,0.02 2.35,0.06l51.4 0c0.65,0 1.18,0.53 1.18,1.18l0 0.03 0 87.13c0,0.65 -0.53,1.18 -1.18,1.18zm-139.81 -22.29c3.93,-15.91 12.15,-30.12 23.36,-41.34 1.33,-1.33 2.7,-2.62 4.12,-3.86l-27.48 -18.63 0 63.83zm29.33 -46.78c10.31,-8.59 22.6,-14.88 36.08,-18.09l-62.76 0 26.68 18.09zm72.73 -18.09c8.71,2.67 16.49,7.44 22.77,13.71l0.29 0.29 12.12 -14 -35.18 0zm24.68 15.72c5.41,5.98 9.52,13.15 11.9,21.08l0 -34.82 -11.9 13.74zm11.9 49.48c-1.76,4.56 -4.45,8.65 -7.84,12.04 -3.21,3.21 -7.05,5.8 -11.32,7.56l19.17 0 0 -19.6zm-42.54 19.6c-1.86,-1.01 -3.56,-2.28 -5.05,-3.76 -3.94,-3.93 -6.37,-9.38 -6.37,-15.39 0,-2.23 0.52,-4.34 1.44,-6.22l-56.62 -38.39c-1.54,1.33 -3.03,2.72 -4.46,4.16 -14.22,14.22 -23.49,33.39 -25.03,54.72l0 4.88 96.09 0zm-8.78 -27.39c0.45,-0.63 0.95,-1.22 1.5,-1.77 0.35,-0.35 0.71,-0.67 1.09,-0.98l33.66 -38.87 -0.41 -0.41c-8.99,-8.99 -21.22,-14.75 -34.81,-15.38l-5.48 0c-19.53,0.71 -37.39,7.89 -51.51,19.47l55.96 37.94zm8.07 -5.49c1.04,-0.26 2.12,-0.4 3.23,-0.42l0.2 -0c2.41,0.06 4.58,1.05 6.16,2.64l0.06 0.06c1.59,1.62 2.58,3.85 2.58,6.3 0,1.74 -0.71,3.33 -1.85,4.47 -1.15,1.15 -2.73,1.85 -4.47,1.85 -1.02,0 -1.95,-0.45 -2.61,-1.17 -0.64,-0.69 -1.04,-1.64 -1.04,-2.69 0,-0.65 0.53,-1.18 1.18,-1.18 0.65,0 1.18,0.53 1.18,1.18 0,0.43 0.16,0.82 0.41,1.09 0.23,0.25 0.54,0.4 0.88,0.4 1.1,0 2.09,-0.44 2.81,-1.16 0.71,-0.72 1.16,-1.71 1.16,-2.81 0,-1.81 -0.72,-3.45 -1.89,-4.64l-0.05 -0.05c-1.18,-1.18 -2.81,-1.92 -4.6,-1.94 -2.72,0.03 -5.22,0.97 -7.2,2.53l-2.9 3.35c-1,1.74 -1.58,3.75 -1.58,5.91 0,5.36 2.17,10.22 5.68,13.72 2.81,2.81 6.48,4.76 10.59,5.43l6.98 0c7.32,-0.91 13.88,-4.27 18.84,-9.22 5.85,-5.85 9.47,-13.95 9.47,-22.89 0,-13.52 -5.07,-25.84 -13.42,-35.17l-29.79 34.4z"/>
 </g>
</svg>

<?xml version="1.0" encoding="UTF-8" standalone="no"?>
<!-- Creator: CorelDRAW 2019 (64-Bit) -->

<svg
   xmlns:dc="http://purl.org/dc/elements/1.1/"
   xmlns:cc="http://creativecommons.org/ns#"
   xmlns:rdf="http://www.w3.org/1999/02/22-rdf-syntax-ns#"
   xmlns:svg="http://www.w3.org/2000/svg"
   xmlns="http://www.w3.org/2000/svg"
   xmlns:sodipodi="http://sodipodi.sourceforge.net/DTD/sodipodi-0.dtd"
   xmlns:inkscape="http://www.inkscape.org/namespaces/inkscape"
   xml:space="preserve"
   width="85"
   height="85"
   version="1.1"
   style="clip-rule:evenodd;fill-rule:evenodd;image-rendering:optimizeQuality;shape-rendering:geometricPrecision;text-rendering:geometricPrecision"
   viewBox="0 0 441.30852 441.28243"
   id="svg10"
   sodipodi:docname="contact.svg"
   inkscape:version="0.92.3 (2405546, 2018-03-11)"><metadata
   id="metadata14"><rdf:RDF><cc:Work
       rdf:about=""><dc:format>image/svg+xml</dc:format><dc:type
         rdf:resource="http://purl.org/dc/dcmitype/StillImage" /><dc:title></dc:title></cc:Work></rdf:RDF></metadata><sodipodi:namedview
   pagecolor="#ffffff"
   bordercolor="#666666"
   borderopacity="1"
   objecttolerance="10"
   gridtolerance="10"
   guidetolerance="10"
   inkscape:pageopacity="0"
   inkscape:pageshadow="2"
   inkscape:window-width="1920"
   inkscape:window-height="1015"
   id="namedview12"
   showgrid="false"
   units="px"
   inkscape:zoom="4.8227156"
   inkscape:cx="11.807283"
   inkscape:cy="55.971494"
   inkscape:window-x="1920"
   inkscape:window-y="0"
   inkscape:window-maximized="1"
   inkscape:current-layer="svg10" />
 <defs
   id="defs4">
  <style
   type="text/css"
   id="style2">
   <![CDATA[
    .fil0 {fill:black;fill-rule:nonzero}
   ]]>
  </style>
 </defs>
 <g
   id="Layer_x0020_1"
   transform="matrix(2.1696051,0,0,2.1696051,64.920006,123.20425)"
   style="fill:#12d9e1;fill-opacity:1">
  <metadata
   id="CorelCorpID_0Corel-Layer" />
  <path
   class="fil0"
   d="m 142.4,89.57 h -29.39 c -1.31,0.16 -2.64,0.24 -3.99,0.25 h -0.21 c -1.06,-0.01 -2.09,-0.1 -3.11,-0.25 H 1.9 c -0.2,0.16 -0.45,0.25 -0.73,0.25 -0.65,0 -1.18,-0.53 -1.18,-1.18 0,-2.14 0.08,-4.27 0.23,-6.37 V 1.24 C 0.22,0.59 0.75,0.06 1.4,0.06 H 85.47 C 86.45,0.03 87.44,0.01 88.43,0 h 0.21 c 0.79,0 1.57,0.02 2.35,0.06 h 51.4 c 0.65,0 1.18,0.53 1.18,1.18 V 1.27 88.4 c 0,0.65 -0.53,1.18 -1.18,1.18 z M 2.59,67.28 C 6.52,51.37 14.74,37.16 25.95,25.94 c 1.33,-1.33 2.7,-2.62 4.12,-3.86 L 2.59,3.45 Z M 31.92,20.5 C 42.23,11.91 54.52,5.62 68,2.41 H 5.24 Z M 104.65,2.41 c 8.71,2.67 16.49,7.44 22.77,13.71 l 0.29,0.29 12.12,-14 z m 24.68,15.72 c 5.41,5.98 9.52,13.15 11.9,21.08 V 4.39 Z m 11.9,49.48 c -1.76,4.56 -4.45,8.65 -7.84,12.04 -3.21,3.21 -7.05,5.8 -11.32,7.56 h 19.17 V 67.61 Z M 98.69,87.21 C 96.83,86.2 95.13,84.93 93.64,83.45 89.7,79.52 87.27,74.07 87.27,68.06 c 0,-2.23 0.52,-4.34 1.44,-6.22 L 32.09,23.45 c -1.54,1.33 -3.03,2.72 -4.46,4.16 C 13.41,41.83 4.14,61 2.6,82.33 v 4.88 z M 89.91,59.82 c 0.45,-0.63 0.95,-1.22 1.5,-1.77 0.35,-0.35 0.71,-0.67 1.09,-0.98 L 126.16,18.2 125.75,17.79 C 116.76,8.8 104.53,3.04 90.94,2.41 H 85.46 C 65.93,3.12 48.07,10.3 33.95,21.88 Z m 8.07,-5.49 c 1.04,-0.26 2.12,-0.4 3.23,-0.42 h 0.2 c 2.41,0.06 4.58,1.05 6.16,2.64 l 0.06,0.06 c 1.59,1.62 2.58,3.85 2.58,6.3 0,1.74 -0.71,3.33 -1.85,4.47 -1.15,1.15 -2.73,1.85 -4.47,1.85 -1.02,0 -1.95,-0.45 -2.61,-1.17 -0.64,-0.69 -1.04,-1.64 -1.04,-2.69 0,-0.65 0.53,-1.18 1.18,-1.18 0.65,0 1.18,0.53 1.18,1.18 0,0.43 0.16,0.82 0.41,1.09 0.23,0.25 0.54,0.4 0.88,0.4 1.1,0 2.09,-0.44 2.81,-1.16 0.71,-0.72 1.16,-1.71 1.16,-2.81 0,-1.81 -0.72,-3.45 -1.89,-4.64 l -0.05,-0.05 c -1.18,-1.18 -2.81,-1.92 -4.6,-1.94 -2.72,0.03 -5.22,0.97 -7.2,2.53 l -2.9,3.35 c -1,1.74 -1.58,3.75 -1.58,5.91 0,5.36 2.17,10.22 5.68,13.72 2.81,2.81 6.48,4.76 10.59,5.43 h 6.98 c 7.32,-0.91 13.88,-4.27 18.84,-9.22 5.85,-5.85 9.47,-13.95 9.47,-22.89 0,-13.52 -5.07,-25.84 -13.42,-35.17 l -29.79,34.4 z"
   id="path7"
   inkscape:connector-curvature="0"
   style="fill:#12d9e1;fill-opacity:1;fill-rule:nonzero" />
 </g>
</svg>
